X: 10381
T: Donald Bàn Of Kyles Flodda
R: jig
M: 6/8
K: Amajor
|:e|c>Bc B>AA|c<ee c>BA|f>ef a2A|c>BA B2e|
c>Bc B>AA|c<ee c>BA|f<af e2c|c>BA A2:|
|:e|f>ef a2A|c>Bc e>cA|f>ef a>fe|c>BA B2e|
f>ef a2A|c>Bc e>cA|f<af e2c|c>BA A2:|
|:e|A>Bc c>BA|e>cc c>Bc|A>ce e>cA|c>BB B2e|
A>Bc c>BA|e>cc c>Bc|f<af e2c|c>BA A2:|
|:e|a2a f>ec|e>fa c>BA|f>ea f>ec|c>BA B2e|
a2a f>ec|e>fa c>BA|f<af e2c|c>BA A2:|

